X:1
T:The Day that Thou Gavest
M:3/4
L:1/8
Q:80
C:
S:Air
K:HP
A2 | \
{gfg}f2g2f2 | | \
{ag}a2f2{gef}e2 | | \
{Gdc}d2e2B2| |
{Gdc}d2{gcd}c2B2 | \
{g}A4{GAG}A2 | \
{Gdc}d2e2f2| |
{gef}e4d2 | | \
{gcd}c4A2|]
{gfg}f2g2f2| |
{ag}a2f2{gef}e2 | | \
{Gdc}d2e2B2 | | \
{Gdc}d2{gcd}c2B2 |
{g}A2B2c2 | | \
{Gdc}d2f2e2 | | \
{gBd}B2d2c2| |
{Gdc}d4|]
